X:201
T:The mountain road
R:Reel
O:Ireland
B:Robin Williamson
D:Sharon Shannon ?
D:Denis Murphy and Friends: Traditional Irish Music
S:Denis Murphy and Friends: Traditional Irish Music
Z:Transcription, chords:Mike Long
M:C|
L:1/8
K:D
"D"F2AF "(G)"BFAF|"D"F2AF "A"EFDE|"D"F2AF "(G)"BFAF|"G"G2FG "A"EFDE|\
"D"F2AF "(G)"BFAF|"D"F2AF "A"EFDE|
"D"F2AF "(G)"BFAF|"G"ABde "D"fdd2\
|:"D"dcdB "(A)"A2FA|"D"dcde "A"fafe|"D"dcdB "(A)"A2FA|"G"GEFD "A"EDB,D:|
